svgs/solid/signal-slash.svg

<svg xmlns="http://www.w3.org/2000/svg" viewBox="0 0 640 512"><!-- Font Awesome Pro 6.0.0-alpha2 by @fontawesome - https://fontawesome.com License - https://fontawesome.com/license (Commercial License) --><path d="M191.999 287.996C174.325 287.996 159.999 302.322 159.999 319.994V479.992C159.999 497.664 174.325 511.992 191.999 511.992C209.671 511.992 223.999 497.664 223.999 479.992V319.994C223.999 302.322 209.671 287.996 191.999 287.996ZM63.999 383.994C46.325 383.994 31.999 398.32 31.999 415.994V479.992C31.999 497.664 46.325 511.992 63.999 511.992C81.671 511.992 95.999 497.664 95.999 479.992V415.994C95.999 398.32 81.673 383.994 63.999 383.994ZM287.999 480C287.999 497.672 302.325 512 319.999 512S351.999 497.672 351.999 480V372.574L287.999 322.414V480ZM630.812 469.102L607.997 451.221V32C607.997 14.326 593.671 0 575.997 0S543.997 14.326 543.997 32V401.059L479.999 350.898V128C479.999 110.326 465.673 96 447.999 96S415.999 110.326 415.999 128V300.736L351.999 250.576V224C351.999 206.326 337.673 192 319.999 192C309.347 192 300.37 197.547 294.554 205.551L38.814 5.109C34.407 1.672 29.189 0 24.032 0C16.907 0 9.845 3.156 5.126 9.188C-3.061 19.625 -1.249 34.717 9.189 42.889L601.187 506.883C611.687 515.086 626.749 513.211 634.874 502.805C643.062 492.367 641.249 477.273 630.812 469.102ZM415.999 480C415.999 497.672 430.325 512 447.999 512S479.999 497.672 479.999 480V472.898L415.999 422.736V480Z"/></svg>

<svg xmlns="http://www.w3.org/2000/svg" viewBox="0 0 640 512"><!--! Font Awesome Pro 6.3.0 by @fontawesome - https://fontawesome.com License - https://fontawesome.com/license (Commercial License) Copyright 2023 Fonticons, Inc. --><path d="M38.8 5.1C28.4-3.1 13.3-1.2 5.1 9.2S-1.2 34.7 9.2 42.9l592 464c10.4 8.2 25.5 6.3 33.7-4.1s6.3-25.5-4.1-33.7L608 451.2V32c0-17.7-14.3-32-32-32s-32 14.3-32 32V401.1l-64-50.2V128c0-17.7-14.3-32-32-32s-32 14.3-32 32V300.8l-64-50.2V224c0-17.7-14.3-32-32-32c-10.7 0-20.1 5.2-25.9 13.2L38.8 5.1zM480 480v-5.8l-64-50.4V480c0 17.7 14.3 32 32 32s32-14.3 32-32zM352 373.3l-64-50.4V480c0 17.7 14.3 32 32 32s32-14.3 32-32V373.3zM192 288c-17.7 0-32 14.3-32 32V480c0 17.7 14.3 32 32 32s32-14.3 32-32V320c0-17.7-14.3-32-32-32zM96 416c0-17.7-14.3-32-32-32s-32 14.3-32 32v64c0 17.7 14.3 32 32 32s32-14.3 32-32V416z"/></svg>
